X:232
T:Belle, belle tres doulce mere Dieu (Chanson 11)
S:from bay11.MID
C:Manuscript de Bayeux (fin XVe)
R:Chanson
M:4/4
L:1/8
Q:1/4=98
%beats in anacrusis = 2
K:G
V:1
A | e2ze2<g2f | e3e d3/2e/2 dc | B2zc2<A2A | 
B3/2c/2 dd e2 ef | g3/2a/2 gf ed cA | A3A Bc dd | e2zd d/2c/2B/2A/2 B2 | 
A8 | z6 zA | e2ze f2 fe | d2zf ga gf | 
e2ze2<e2e | d3f ga gf | e2ze a2za | g2 gf2<e2e | 
d3/2e/2 dc B2zc | A3A B3/2c/2 dd | e2 ef g3/2a/2 gf | ed cA2<A2A | 
B3/2c/2 dd2<e2d | cB/2A/2 B2 A4 |]
V:2 clef=perc  staffscale=0.8 stafflines=1
K:none
z | \
A3/2A/2 AA A3/2A/2 AA | A3/2A/2 AA A3/2A/2 AA | A3/2A/2 AA A3/2A/2 AA | 
A3/2A/2 AA A3/2A/2 AA | A3/2A/2 AA A3/2A/2 AA | A3/2A/2 AA A3/2A/2 AA | A3/2A/2 AA A3/2A/2 AA | 
A3/2A/2 AA A4 | A3/2A/2 AA A3/2A/2 AA | A3/2A/2 AA A3/2A/2 AA | A3/2A/2 AA A3/2A/2 AA | 
A3/2A/2 AA A3/2A/2 AA | A3/2A/2 AA A3/2A/2 AA | A3/2A/2 AA A3/2A/2 AA | A3/2A/2 AA A3/2A/2 AA | 
A3/2A/2 AA A3/2A/2 AA | A3/2A/2 AA A3/2A/2 AA | A3/2A/2 AA A3/2A/2 AA | A3/2A/2 AA A3/2A/2 AA | 
A3/2A/2 AA A3/2A/2 AA | A3/2A/2 AA A4 |]





